_includes/icons/ios-bicycle.svg

<svg fill="#666" height="50" viewBox="0 0 50 50" width="50" xmlns="http://www.w3.org/2000/svg"><path d="m28.90625 8.96875c-.042969.007813-.085937.019531-.125.03125-.375.066406-.675781.339844-.78125.703125-.105469.367188.003906.757813.28125 1.015625.5.5 1.136719 1 2.0625 1.15625.753906.125 2.109375.09375 3.78125.09375.039063.257813.0625.503906.125.875.132813.789063.335938 1.90625.59375 3.15625h-17.21875l-1.5-3c.058594-.003906.128906 0 .1875 0 2.601563 0 3.6875-.707031 3.6875-1.40625 0-.601562-.511719-.601562-1.3125-.5h-6.375c-1.101562 0-1.3125.507813-1.3125 1.40625 0 2.300781 1.367188 1.539063 3.125.9375l1.75 3.5625-2.34375 4.65625c-1.101562-.421875-2.285156-.65625-3.53125-.65625-5.511719 0-10 4.488281-10 10s4.488281 10 10 10c5.175781 0 9.4375-3.953125 9.9375-9h4.0625c.203125-.003906.398438-.070312.5625-.1875.019531-.007812.042969-.019531.0625-.03125l.03125-.03125c.019531-.007812.042969-.019531.0625-.03125 0-.011719 0-.019531 0-.03125l.03125-.03125c.035156-.039062.066406-.082031.09375-.125l10.6875-12.46875c.199219.84375.441406 1.742188.6875 2.6875-3.636719 1.5-6.21875 5.082031-6.21875 9.25 0 5.511719 4.488281 10 10 10s10-4.488281 10-10-4.488281-10-10-10c-.644531 0-1.265625.070313-1.875.1875-.414062-1.621094-.78125-3.140625-1.0625-4.4375-.382812-1.773437-.675781-3.210937-.84375-4.21875-.085937-.503906-.117187-.914062-.15625-1.1875-.019531-.136719-.054687-.242187-.0625-.3125-.007812-.070312 0-.179687 0-.03125 0-.550781-.449219-1-1-1-2.5 0-3.769531-.03125-4.34375-.125s-.4375-.09375-.9375-.59375c-.207031-.222656-.507812-.335937-.8125-.3125zm-10.28125 9.03125h15.21875l-9.625 11.1875zm-1.625 1.25 5.375 10.75h-2.4375c-.308594-3.132812-2.0625-5.828125-4.59375-7.4375zm-7 3.75c.933594 0 1.824219.144531 2.65625.4375l-3.5625 7.125c-.152344.3125-.132812.679688.054688.972656.183593.289063.503906.46875.851562.464844h7.9375c-.492187 3.953125-3.847656 7-7.9375 7-4.429687 0-8-3.570312-8-8 0-4.429687 3.570313-8 8-8zm30 0c4.429688 0 8 3.570313 8 8 0 4.429688-3.570312 8-8 8-4.429687 0-8-3.570312-8-8 0-3.257812 1.9375-6.03125 4.71875-7.28125.644531 2.332031 1.414063 4.878906 2.34375 7.59375.066406.390625.355469.703125.734375.800781.382813.097657.785156-.035156 1.03125-.34375.246094-.308593.289063-.730468.109375-1.082031-.921875-2.695312-1.683594-5.246094-2.3125-7.5625.445313-.078125.90625-.125 1.375-.125zm-25.5625 1.375c1.878906 1.257813 3.207031 3.269531 3.5 5.625h-6.3125z"/></svg>

<svg xmlns="http://www.w3.org/2000/svg" viewBox="0 0 50 50" width="50" height="50" fill="#666"><path d="M 28.90625 8.96875 C 28.863281 8.976563 28.820313 8.988281 28.78125 9 C 28.40625 9.066406 28.105469 9.339844 28 9.703125 C 27.894531 10.070313 28.003906 10.460938 28.28125 10.71875 C 28.78125 11.21875 29.417969 11.71875 30.34375 11.875 C 31.097656 12 32.453125 11.96875 34.125 11.96875 C 34.164063 12.226563 34.1875 12.472656 34.25 12.84375 C 34.382813 13.632813 34.585938 14.75 34.84375 16 L 17.625 16 L 16.125 13 C 16.183594 12.996094 16.253906 13 16.3125 13 C 18.914063 13 20 12.292969 20 11.59375 C 20 10.992188 19.488281 10.992188 18.6875 11.09375 L 12.3125 11.09375 C 11.210938 11.09375 11 11.601563 11 12.5 C 11 14.800781 12.367188 14.039063 14.125 13.4375 L 15.875 17 L 13.53125 21.65625 C 12.429688 21.234375 11.246094 21 10 21 C 4.488281 21 0 25.488281 0 31 C 0 36.511719 4.488281 41 10 41 C 15.175781 41 19.4375 37.046875 19.9375 32 L 24 32 C 24.203125 31.996094 24.398438 31.929688 24.5625 31.8125 C 24.582031 31.804688 24.605469 31.792969 24.625 31.78125 C 24.636719 31.769531 24.644531 31.761719 24.65625 31.75 C 24.675781 31.742188 24.699219 31.730469 24.71875 31.71875 C 24.71875 31.707031 24.71875 31.699219 24.71875 31.6875 C 24.730469 31.675781 24.738281 31.667969 24.75 31.65625 C 24.785156 31.617188 24.816406 31.574219 24.84375 31.53125 L 35.53125 19.0625 C 35.730469 19.90625 35.972656 20.804688 36.21875 21.75 C 32.582031 23.25 30 26.832031 30 31 C 30 36.511719 34.488281 41 40 41 C 45.511719 41 50 36.511719 50 31 C 50 25.488281 45.511719 21 40 21 C 39.355469 21 38.734375 21.070313 38.125 21.1875 C 37.710938 19.566406 37.34375 18.046875 37.0625 16.75 C 36.679688 14.976563 36.386719 13.539063 36.21875 12.53125 C 36.132813 12.027344 36.101563 11.617188 36.0625 11.34375 C 36.042969 11.207031 36.007813 11.101563 36 11.03125 C 35.992188 10.960938 36 10.851563 36 11 C 36 10.449219 35.550781 10 35 10 C 32.5 10 31.230469 9.96875 30.65625 9.875 C 30.082031 9.78125 30.21875 9.78125 29.71875 9.28125 C 29.511719 9.058594 29.210938 8.945313 28.90625 8.96875 Z M 18.625 18 L 33.84375 18 L 24.21875 29.1875 Z M 17 19.25 L 22.375 30 L 19.9375 30 C 19.628906 26.867188 17.875 24.171875 15.34375 22.5625 Z M 10 23 C 10.933594 23 11.824219 23.144531 12.65625 23.4375 L 9.09375 30.5625 C 8.941406 30.875 8.960938 31.242188 9.148438 31.535156 C 9.332031 31.824219 9.652344 32.003906 10 32 L 17.9375 32 C 17.445313 35.953125 14.089844 39 10 39 C 5.570313 39 2 35.429688 2 31 C 2 26.570313 5.570313 23 10 23 Z M 40 23 C 44.429688 23 48 26.570313 48 31 C 48 35.429688 44.429688 39 40 39 C 35.570313 39 32 35.429688 32 31 C 32 27.742188 33.9375 24.96875 36.71875 23.71875 C 37.363281 26.050781 38.132813 28.597656 39.0625 31.3125 C 39.128906 31.703125 39.417969 32.015625 39.796875 32.113281 C 40.179688 32.210938 40.582031 32.078125 40.828125 31.769531 C 41.074219 31.460938 41.117188 31.039063 40.9375 30.6875 C 40.015625 27.992188 39.253906 25.441406 38.625 23.125 C 39.070313 23.046875 39.53125 23 40 23 Z M 14.4375 24.375 C 16.316406 25.632813 17.644531 27.644531 17.9375 30 L 11.625 30 Z"/></svg>
